!! 00000] TT[WS
!!!OTL: Lihuen
!!!ARE: Asia, China, Shanxi Yuanping
!! Ethnic Group: Han
!! WII, 265 (1)
!!!SCT: J0796
!!!YEM: Copyright 1995, estate of Helmut Schaffrath.
**kern
*ICvox
*Ivox
*M2/4
*k[f#]
*G:
{8dd
16ee
16dd
8b
8a
=1
8dd
16ee
16dd
8b
8a
=2
8dd
8dd
16b
16dd
16b
16a
=3
16g
8g
16b
4a}
=4
{8a
8b
4dd
=5
8a
16b
16a
4g
=6
8b
16a
16b
8d
8g
=7
16a
16g
16e
16g
4d}
=8
{8a
8a
8b
8g
=9
8.a
16b
4a
=10
8b
16a
16b
8d
8g
=11
16a
16g
16e
16g
4d}
==
!!!AGN: Xiaodiao. Xuanchuan, Xinminge
!!!ONB: ESAC (Essen Associative Code) Database: CHINA
!!!AMT: simple duple
!!!AIN: vox
!!!EED: Helmut Schaffrath
!!!EEV: 1.0
*-
